src/standard/gift-box.svg

<svg xmlns="http://www.w3.org/2000/svg" viewBox="0 0 36 36">
  <path d="M31 12.38h-9.15l2.15-.73a3.73 3.73 0 1 0-4.67-4.71L18 11l-1-2.9a.42.42 0 0 0 0-.1 3.11 3.11 0 1 0-3.89 4l1.05.36H5a.62.62 0 0 0-.62.62v5a.62.62 0 0 0 .62.62h1.38V31a.62.62 0 0 0 .62.62h22a.62.62 0 0 0 .62-.62V18.62H31a.62.62 0 0 0 .62-.62v-5a.62.62 0 0 0-.62-.62ZM20.51 7.44a2.48 2.48 0 1 1 3 3.06L19 12Zm-7 3.39a1.86 1.86 0 1 1 2.39-2.22L17 12l-3.42-1.14Zm-7.89 2.79h8.76v3.76H5.62Zm2 5h6.76v11.76H7.62Zm8 11.76V13.62h4.76v16.76Zm12.76 0h-6.76V18.62h6.76Zm2-13h-8.76v-3.76h8.76Z"/>
</svg>

<svg id="abe1b2b3-b1b7-4d12-af09-c6af346e75ba" data-name="Icon" xmlns="http://www.w3.org/2000/svg" viewBox="0 0 36 36">
  <title>Gift box icon - Black</title>
<desc>present, surprise, birthday, anniversary, celebration, celebrate, bow, wrap, holiday, objects</desc>
<metadata><?xpacket begin="﻿" id="W5M0MpCehiHzreSzNTczkc9d"?>
<x:xmpmeta xmlns:x="adobe:ns:meta/" x:xmptk="Adobe XMP Core 8.0-c001 1.000000, 0000/00/00-00:00:00        ">
   <rdf:RDF xmlns:rdf="http://www.w3.org/1999/02/22-rdf-syntax-ns#">
      <rdf:Description rdf:about=""
            xmlns:xmp="http://ns.adobe.com/xap/1.0/"
            xmlns:dc="http://purl.org/dc/elements/1.1/"
            xmlns:cq="http://www.day.com/jcr/cq/1.0"
            xmlns:tiff="http://ns.adobe.com/tiff/1.0/">
         <xmp:rhcc-effective-on>2023-12-08T17:35:42.305Z</xmp:rhcc-effective-on>
         <xmp:rhcc-metadata-complete-moderator>pending</xmp:rhcc-metadata-complete-moderator>
         <xmp:rhcc-translation-id>TRAb6b8bbaf-9055-41be-9553-d476b096ce4a</xmp:rhcc-translation-id>
         <xmp:brand-content-type>Icon</xmp:brand-content-type>
         <xmp:CreateDate>2023-12-08T17:35:42.305Z</xmp:CreateDate>
         <xmp:rhcc-effective-on-set-on-upload>true</xmp:rhcc-effective-on-set-on-upload>
         <xmp:rhcc-metadata-complete-uploader>pending</xmp:rhcc-metadata-complete-uploader>
         <xmp:rhcc-file-last-modified>2023-12-08T17:36:31.991Z</xmp:rhcc-file-last-modified>
         <xmp:rhcc-audience>rhcc-audience:internal</xmp:rhcc-audience>
         <xmp:rhcc-rights-restricted>no</xmp:rhcc-rights-restricted>
         <xmp:brand-content-subtype>Icon</xmp:brand-content-subtype>
         <xmp:rhcc-derivative-id>DERb6b8bbaf-9055-41be-9553-d476b096ce4a</xmp:rhcc-derivative-id>
         <xmp:brand-logo-color>Black</xmp:brand-logo-color>
         <xmp:rhcc-notify-portal-subscribers-on-change>yes</xmp:rhcc-notify-portal-subscribers-on-change>
         <dc:format>image/svg+xml</dc:format>
         <dc:modified>2024-02-09T20:30:38.459Z</dc:modified>
         <dc:title>
            <rdf:Alt>
               <rdf:li xml:lang="x-default">Gift box icon - Black</rdf:li>
            </rdf:Alt>
         </dc:title>
         <dc:description>
            <rdf:Alt>
               <rdf:li xml:lang="x-default">present, surprise, birthday, anniversary, celebration, celebrate, bow, wrap, holiday, objects</rdf:li>
            </rdf:Alt>
         </dc:description>
         <cq:lastReplicationAction_scene7>Activate</cq:lastReplicationAction_scene7>
         <cq:lastReplicationAction_publish>Activate</cq:lastReplicationAction_publish>
         <cq:lastReplicated_publish>2024-02-09T22:17:34.431Z</cq:lastReplicated_publish>
         <cq:lastReplicatedBy>workflow-process-service</cq:lastReplicatedBy>
         <cq:lastReplicationAction>Activate</cq:lastReplicationAction>
         <cq:lastReplicatedBy_publish>workflow-process-service</cq:lastReplicatedBy_publish>
         <cq:isDelivered>true</cq:isDelivered>
         <cq:lastReplicated>2024-02-09T22:17:34.431Z</cq:lastReplicated>
         <cq:lastReplicatedBy_scene7>workflow-process-service</cq:lastReplicatedBy_scene7>
         <cq:lastReplicated_scene7>2024-02-09T22:17:34.431Z</cq:lastReplicated_scene7>
         <tiff:ImageLength>36</tiff:ImageLength>
         <tiff:ImageWidth>36</tiff:ImageWidth>
      </rdf:Description>
   </rdf:RDF>
</x:xmpmeta>
                                                                                                    
                                                                                                    
                                                                                                    
                                                                                                    
                                                                                                    
                                                                                                    
                                                                                                    
                                                                                                    
                                                                                                    
                                                                                                    
                                 
<?xpacket end="w"?></metadata>
<path d="M31,12.38H21.85L24,11.65a3.73,3.73,0,1,0-4.67-4.71L18,11l-1-2.9A.42.42,0,0,0,17,8a3.11,3.11,0,1,0-3.89,4l1.05.36H5a.62.62,0,0,0-.62.62v5a.62.62,0,0,0,.62.62H6.38V31a.62.62,0,0,0,.62.62H29a.62.62,0,0,0,.62-.62V18.62H31a.62.62,0,0,0,.62-.62V13A.62.62,0,0,0,31,12.38ZM20.51,7.44a2.48,2.48,0,1,1,3,3.06L19,12Zm-7,3.39a1.86,1.86,0,1,1,2.39-2.22L17,12l-3.42-1.14ZM5.62,13.62h8.76v3.76H5.62Zm2,5h6.76V30.38H7.62Zm8,11.76V13.62h4.76V30.38Zm12.76,0H21.62V18.62h6.76Zm2-13H21.62V13.62h8.76Z"/>
</svg>
